src/icons/eye.svg

<svg width="16" height="16" xmlns="http://www.w3.org/2000/svg"><path fill-rule="evenodd" clip-rule="evenodd" d="M1 10c0-3.9 3.1-7 7-7s7 3.1 7 7h-1c0-3.3-2.7-6-6-6s-6 2.7-6 6H1zm4 0c0-1.7 1.3-3 3-3s3 1.3 3 3-1.3 3-3 3-3-1.3-3-3zm1 0c0 1.1.9 2 2 2s2-.9 2-2-.9-2-2-2-2 .9-2 2z"/></svg>

<svg width="16" height="16" viewBox="0 0 16 16" fill="none" xmlns="http://www.w3.org/2000/svg">
<path fill-rule="evenodd" clip-rule="evenodd" d="M1 10C1 6.1 4.1 3 8 3C11.9 3 15 6.1 15 10H14C14 6.7 11.3 4 8 4C4.7 4 2 6.7 2 10H1ZM5 10C5 8.3 6.3 7 8 7C9.7 7 11 8.3 11 10C11 11.7 9.7 13 8 13C6.3 13 5 11.7 5 10ZM6 10C6 11.1 6.9 12 8 12C9.1 12 10 11.1 10 10C10 8.9 9.1 8 8 8C6.9 8 6 8.9 6 10Z" fill="white"/>
</svg>
